dist/img/corp/common-icon6.svg

<svg width="50" height="50" viewBox="0 0 50 50" fill="none" xmlns="http://www.w3.org/2000/svg">
<path d="M25 20.125V25.9375L27.9167 28.8542" stroke="#FC00FF" stroke-width="2" stroke-linecap="round" stroke-linejoin="round"/>
<path d="M11.457 24.9999C11.457 17.5208 17.5195 11.4583 24.9987 11.4583C32.4779 11.4583 38.5404 17.5208 38.5404 24.9999C38.5404 29.3333 36.4987 33.2083 33.332 35.6874H33.3112C31.0195 37.4791 28.1445 38.5416 24.9987 38.5416C21.8945 38.5416 19.0404 37.4999 16.7487 35.7291H16.7279C13.5195 33.2499 11.457 29.3749 11.457 24.9999Z" stroke="#FC00FF" stroke-width="2" stroke-linecap="round" stroke-linejoin="round"/>
<path d="M16.7305 35.7292H16.7513C19.043 37.5 21.8971 38.5417 25.0013 38.5417C28.1471 38.5417 31.0221 37.4792 33.3138 35.6875H33.3346L32.2721 40.8333C31.2513 44.7917 28.9596 45.8333 26.1471 45.8333H23.8763C21.0638 45.8333 18.7513 44.7917 17.7513 40.8125L16.7305 35.7292Z" stroke="#FC00FF" stroke-width="2" stroke-linecap="round" stroke-linejoin="round"/>
<path d="M16.7305 14.2709H16.7513C19.043 12.5001 21.8971 11.4584 25.0013 11.4584C28.1471 11.4584 31.0221 12.5209 33.3138 14.3126H33.3346L32.2721 9.16675C31.2513 5.20842 28.9596 4.16675 26.1471 4.16675H23.8763C21.0638 4.16675 18.7513 5.20841 17.7513 9.18758L16.7305 14.2709Z" stroke="#FC00FF" stroke-width="2" stroke-linecap="round" stroke-linejoin="round"/>
</svg>

<svg width="50" height="50" viewBox="0 0 50 50" fill="none" xmlns="http://www.w3.org/2000/svg"><path d="M25 20.125v5.813l2.917 2.916" stroke="#FC00FF" stroke-width="2" stroke-linecap="round" stroke-linejoin="round"/><path d="M11.457 25c0-7.48 6.063-13.542 13.542-13.542S38.54 17.521 38.54 25a13.56 13.56 0 01-5.208 10.687h-.02a13.422 13.422 0 01-8.313 2.855 13.425 13.425 0 01-8.25-2.813h-.021A13.513 13.513 0 0111.457 25z" stroke="#FC00FF" stroke-width="2" stroke-linecap="round" stroke-linejoin="round"/><path d="M16.73 35.73h.021a13.425 13.425 0 008.25 2.812c3.146 0 6.021-1.063 8.313-2.855h.02l-1.062 5.146c-1.02 3.959-3.312 5-6.125 5h-2.27c-2.813 0-5.126-1.041-6.126-5.02l-1.02-5.084zm0-21.46h.021a13.425 13.425 0 018.25-2.812c3.146 0 6.021 1.063 8.313 2.855h.02l-1.062-5.146c-1.02-3.959-3.312-5-6.125-5h-2.27c-2.813 0-5.126 1.041-6.126 5.02l-1.02 5.084z" stroke="#FC00FF" stroke-width="2" stroke-linecap="round" stroke-linejoin="round"/></svg>
